svg/CH-SG.svg

<?xml version="1.0" encoding="UTF-8"?>
<svg width="419.5" height="419.5" version="1.1" viewBox="-32.75 9.6658 419.5 419.5" xmlns="http://www.w3.org/2000/svg">
 <g stroke="#000" stroke-width="4.5">
  <rect x="-32.75" y="9.6658" width="419.5" height="419.5" fill="#00a55b" stroke="none"/>
  <path d="m168.6 35.7a8.45 7.5 0 0 1 16.8 0v375.8a8.45 7.5 0 0 1-16.8 0z" fill="#fff"/>
  <path d="m144.75 369.3a7.45 7.2 0 0 1-14.9 0v-254.7a7.45 6.4 0 0 1 14.9 0v253.3a9.375 8.9 0 0 0 18.75 0v-251.7a9.375 8.4 0 0 0-18.75 0m64.5 253.1a7.45 7.2 0 0 0 14.9 0v-254.7a7.45 6.4 0 0 0-14.9 0v253.3a9.375 8.9 0 0 1-18.75 0v-251.7a9.375 8.4 0 0 1 18.75 0m-45.75 2.8a13.5 11.5 0 0 1 27 0v247a13.5 11 0 0 1-27 0m34.5-288.4v-27.8h-25c-25-0.2-38.5-13-49.4-27.2-6.9 13.6-8.9 22-9.2 34.8 0.4 15 2.2 24.1 11 40 13.9-14.2 26.7-19.5 46.3-19.8z" fill="#fff"/>
  <path d="m125.5 131h103v22h-103zm0 200.7h103v22h-103zm0-12.2h1.5l101.5-120.5v-33.7h-1.5l-101.5 120.5z" fill="#00a55b" stroke-linejoin="round"/>
  <path d="m125.5 165.3h1.5l101.5 120.5v33.7h-1.5l-101.5-120.5z" fill="#00a55b" stroke-linejoin="round"/>
 </g>
</svg>

<?xml version="1.0" encoding="utf-8" standalone="no"?>
<svg version="1.1" xmlns="http://www.w3.org/2000/svg" width="419.5" height="419.5" viewBox="-32.75 9.6658382 419.5 419.5">
<g stroke="black" stroke-width="4.5" fill="#009933">
<rect x="-32.75" y="9.6658382" width="419.5" height="419.5" stroke="none" />
<path d="M 168.6,35.7 a 8.45,7.5 0 0,1 16.8,0 V 411.5 a 8.45,7.5 0 0,1 -16.8,0 z" fill="white" />
<path d="M 144.75,369.3 a 7.45,7.2 0 0,1 -14.9,0 V 114.6 a 7.45,6.4 0 0,1 14.9,0 V 367.9 a 9.375,8.9 0 0,0 18.75,0 V 116.2 a 9.375,8.4 0 0,0 -18.75,0 M 209.25,369.3 a 7.45,7.2 0 0,0 14.9,0 V 114.6 a 7.45,6.4 0 0,0 -14.9,0 V 367.9 a 9.375,8.9 0 0,1 -18.75,0 V 116.2 a 9.375,8.4 0 0,1 18.75,0 M 163.5,119 A 13.5,11.5 0 0 1 190.5,119 L 190.5,366 A 13.5,11 0 0 1 163.5,366 M 198,77.6 V 49.8 H 173 c -25,-0.2 -38.5,-13 -49.4,-27.2 -6.9,13.6 -8.9,22 -9.2,34.8 0.4,15 2.2,24.1 11,40 13.9,-14.2 26.7,-19.5 46.3,-19.8 z" fill="white" />
<path d="M 125.5,131 l 103,0 0,22 -103,0 z M 125.5,331.7 l 103,0 0,22 -103,0 z M 125.5,319.5 l 1.5,0 101.5,-120.5 0,-33.7 -1.5,0 -101.5,120.5 z" stroke-linejoin="round" />
<path d="M 125.5,165.3 l 1.5,0 101.5,120.5 0,33.7 -1.5,0 -101.5,-120.5 z" stroke-linejoin="round" />
</g>
</svg>
